X:0362
T:The Flight.
N:heavy double lines above and below the double bars
M:6/8
L:1/8
Q:3/8=120
I: :: ::
Z:Jack Campin * www.campin.me.uk * 2009
K:D
A|dfe dfe|d2A A2G|FAd Bcd|egf e2
A|dfe dfe|d2A A2G|FAd Adc|d3  d2::
a|a2f dfa|b2g efg|a2d c2d|ecA A2
a|a2f dfa|b2g efg|afd Adc|d3  d2:|
<end>
<start>
